src/assets/coctail-icon.svg

<svg width="26" height="26" class="iconPrimary" viewBox="0 0 26 26" fill="none" xmlns="http://www.w3.org/2000/svg">
<path fill-rule="evenodd" clip-rule="evenodd" d="M12.5938 24.7812V16.25H13.4062V24.7812H12.5938Z" fill="#EFEFEF"/>
<path fill-rule="evenodd" clip-rule="evenodd" d="M3.6836 7.16601C3.74412 7.00946 3.89468 6.90625 4.06252 6.90625H21.9375C22.1054 6.90625 22.2559 7.00946 22.3164 7.16601C22.377 7.32255 22.335 7.5002 22.2108 7.6131L19.9764 9.64435C19.8104 9.79528 19.5535 9.78304 19.4025 9.61702C19.2516 9.45101 19.2639 9.19407 19.4299 9.04315L20.8867 7.71875H5.11333L6.57016 9.04315C6.73618 9.19407 6.74842 9.45101 6.59749 9.61702C6.44657 9.78304 6.18964 9.79528 6.02362 9.64435L3.78924 7.6131C3.66505 7.5002 3.62308 7.32255 3.6836 7.16601Z" fill="#EFEFEF"/>
<path d="M13 16.25L8.125 11.375H17.875L13 16.25Z" fill="currentColor" stroke="currentColor" stroke-width="2" stroke-linejoin="round"/>
<path fill-rule="evenodd" clip-rule="evenodd" d="M8.53125 24.7812C8.53125 24.5569 8.71313 24.375 8.9375 24.375H17.0625C17.2869 24.375 17.4688 24.5569 17.4688 24.7812C17.4688 25.0056 17.2869 25.1875 17.0625 25.1875H8.9375C8.71313 25.1875 8.53125 25.0056 8.53125 24.7812Z" fill="#EFEFEF"/>
<path fill-rule="evenodd" clip-rule="evenodd" d="M20.2121 4.32996L17.3683 7.57996L16.7568 7.04492L19.6006 3.79492L20.2121 4.32996Z" fill="#EFEFEF"/>
<circle cx="20.3125" cy="3.25" r="2.03125" fill="#EFEFEF"/>
</svg>

<svg xmlns="http://www.w3.org/2000/svg" width="26" height="26" fill="none" class="iconPrimary" viewBox="0 0 26 26">
    <path fill="#EFEFEF" fill-rule="evenodd" d="M12.594 24.781V16.25h.812v8.531h-.812ZM3.684 7.166a.406.406 0 0 1 .379-.26h17.875a.406.406 0 0 1 .273.707l-2.235 2.031a.406.406 0 1 1-.546-.6l1.457-1.325H5.113L6.57 9.043a.406.406 0 1 1-.546.601l-2.235-2.03a.406.406 0 0 1-.105-.448Z" clip-rule="evenodd"/>
    <path fill="currentColor" stroke="currentColor" stroke-linejoin="round" stroke-width="2" d="m13 16.25-4.875-4.875h9.75L13 16.25Z"/>
    <path fill="#EFEFEF" fill-rule="evenodd" d="M8.531 24.781c0-.224.182-.406.406-.406h8.126a.406.406 0 1 1 0 .813H8.938a.406.406 0 0 1-.407-.407ZM20.212 4.33l-2.844 3.25-.611-.535 2.844-3.25.611.535Z" clip-rule="evenodd"/>
    <circle cx="20.313" cy="3.25" r="2.031" fill="#EFEFEF"/>
</svg>
